image/02/Associates/sei.svg

<svg xmlns="http://www.w3.org/2000/svg" fill="none" viewBox="0 0 110 48" height="48" width="110">
<path fill="black" d="M14.8429 35.591C16.5221 34.152 19.0444 34.3204 20.5172 35.9698C23.2176 38.9942 27.8164 39.3701 30.9725 36.8246L31.3018 36.5589C33.0255 35.1686 35.4655 35.254 37.0846 36.6606C33.604 40.5512 28.5437 43 22.9113 43C18.423 43 14.298 41.445 11.0462 38.8446L14.8429 35.591Z"></path>
<path fill="black" d="M64.0357 14.6615C68.6117 14.6615 71.6058 17.2264 71.6913 21.2021H67.8419C67.7564 19.1074 66.3451 17.7822 63.9074 17.7822C61.3841 17.7822 59.9728 18.8936 59.9728 20.8173C59.9728 22.228 60.9992 23.1685 63.0521 23.6814L66.73 24.5792C70.2797 25.4342 72.0328 27.0586 72.0328 30.1793C72.0328 34.155 68.6117 36.6771 63.6508 36.6771C58.7327 36.6771 55.6106 34.0694 55.6106 30.0938H59.4596C59.4596 32.2312 61.0848 33.5138 63.7363 33.5138C66.5589 33.5138 68.1841 32.3596 68.1841 30.4358C68.1841 29.0251 67.4998 28.1702 65.3188 27.6144L61.6408 26.7594C57.92 25.8617 56.1666 24.0235 56.1666 20.9455C56.1666 17.0981 59.4169 14.6615 64.0357 14.6615Z"></path>
<path fill="black" d="M86.1995 14.6615C92.1442 14.6615 96.0357 18.7654 96.0357 24.9639V26.4602L79.8694 26.5029C80.1695 30.906 82.4785 33.3428 86.4554 33.3428C89.5785 33.3428 91.6309 32.0603 92.3148 29.6664H96.0784C95.0519 34.155 91.5448 36.6771 86.3701 36.6771C80.2121 36.6771 75.9778 32.2312 75.9778 25.7334C75.9778 19.1929 80.1261 14.6615 86.1995 14.6615ZM86.1995 18.0386C82.6925 18.0386 80.4687 20.1334 79.9555 23.8098H92.0155C92.0155 20.3471 89.7491 18.0386 86.1995 18.0386Z" clip-rule="evenodd" fill-rule="evenodd"></path>
<path fill="black" d="M22.9113 5C27.7987 5 32.2553 6.8438 35.6228 9.87345C34.4315 10.1823 33.2935 10.7696 32.3099 11.6408L31.9932 11.9214C30.3729 13.3566 27.9113 13.2694 26.3968 11.7231C23.4981 8.76385 18.7636 8.66665 15.7459 11.5045L11.3276 15.6594L13.7581 18.2419L18.1765 14.087C19.7874 12.572 22.3149 12.6239 23.8622 14.2037C26.6993 17.1001 31.3105 17.2635 34.3457 14.575L34.6625 14.2945C35.7753 13.3088 37.2412 12.9726 38.5937 13.2604C40.6917 16.3156 41.9193 20.0144 41.9193 24C41.9193 27.5868 40.925 30.9414 39.1969 33.8036C36.3056 31.4618 32.0804 31.3749 29.0742 33.7995L28.745 34.0652C27.0601 35.4241 24.6051 35.2234 23.1636 33.609C20.4047 30.519 15.6797 30.2036 12.5342 32.8992L8.48359 36.3704C6.02183 33.5043 4.40007 29.8963 4 25.9278L4.53458 25.4265C6.21686 23.8486 8.85292 23.9062 10.4647 25.556C13.2364 28.3931 17.6993 28.6926 20.8256 26.2513L23.2959 24.3222C25.0613 22.9435 27.5569 23.0102 29.246 24.4812L34.0555 28.6698L36.3856 25.9964L31.5761 21.8079C28.6056 19.221 24.2167 19.1036 21.1121 21.5281L18.6418 23.4572C16.9402 24.786 14.5111 24.623 13.0024 23.0788C10.6128 20.6327 6.99755 20.0917 4.06672 21.4975C5.29224 12.1869 13.2622 5.00001 22.9113 5Z"></path>
<path fill="black" d="M105.401 15.2597V36.164H101.381V15.2597H105.401Z"></path>
<path fill="black" d="M103.349 5C104.803 5 106 6.15425 106 7.65046C106 9.10391 104.803 10.3009 103.349 10.3009C101.894 10.3008 100.697 9.1039 100.697 7.65046C100.697 6.15426 101.894 5.00001 103.349 5Z"></path>
</svg>

<?xml version="1.0" encoding="utf-8"?>
<!-- Generator: Adobe Illustrator 23.0.6, SVG Export Plug-In . SVG Version: 6.00 Build 0)  -->
<svg version="1.1" id="Layer_1" xmlns="http://www.w3.org/2000/svg" xmlns:xlink="http://www.w3.org/1999/xlink" x="0px" y="0px"
	 viewBox="0 0 110 48" style="enable-background:new 0 0 110 48;" xml:space="preserve">
<style type="text/css">
	.st0{fill:#FFFFFF;}
	.st1{fill-rule:evenodd;clip-rule:evenodd;fill:#FFFFFF;}
</style>
<path class="st0" d="M14.8,35.6c1.7-1.4,4.2-1.3,5.7,0.4c2.7,3,7.3,3.4,10.5,0.9l0.3-0.3c1.7-1.4,4.2-1.3,5.8,0.1
	c-3.5,3.9-8.5,6.3-14.2,6.3c-4.5,0-8.6-1.6-11.9-4.2L14.8,35.6z"/>
<path class="st0" d="M64,14.7c4.6,0,7.6,2.6,7.7,6.5h-3.8c-0.1-2.1-1.5-3.4-3.9-3.4c-2.5,0-3.9,1.1-3.9,3c0,1.4,1,2.4,3.1,2.9
	l3.7,0.9c3.5,0.9,5.3,2.5,5.3,5.6c0,4-3.4,6.5-8.4,6.5c-4.9,0-8-2.6-8-6.6h3.8c0,2.1,1.6,3.4,4.3,3.4c2.8,0,4.4-1.2,4.4-3.1
	c0-1.4-0.7-2.3-2.9-2.8l-3.7-0.9c-3.7-0.9-5.5-2.7-5.5-5.8C56.2,17.1,59.4,14.7,64,14.7z"/>
<path class="st1" d="M86.2,14.7c5.9,0,9.8,4.1,9.8,10.3v1.5l-16.2,0c0.3,4.4,2.6,6.8,6.6,6.8c3.1,0,5.2-1.3,5.9-3.7h3.8
	c-1,4.5-4.5,7-9.7,7c-6.2,0-10.4-4.4-10.4-10.9C76,19.2,80.1,14.7,86.2,14.7z M86.2,18c-3.5,0-5.7,2.1-6.2,5.8H92
	C92,20.3,89.7,18,86.2,18z"/>
<path class="st0" d="M22.9,5c4.9,0,9.3,1.8,12.7,4.9c-1.2,0.3-2.3,0.9-3.3,1.8L32,11.9c-1.6,1.4-4.1,1.3-5.6-0.2
	c-2.9-3-7.6-3.1-10.7-0.2l-4.4,4.2l2.4,2.6l4.4-4.2c1.6-1.5,4.1-1.5,5.7,0.1c2.8,2.9,7.4,3.1,10.5,0.4l0.3-0.3c1.1-1,2.6-1.3,3.9-1
	c2.1,3.1,3.3,6.8,3.3,10.7c0,3.6-1,6.9-2.7,9.8c-2.9-2.3-7.1-2.4-10.1,0l-0.3,0.3c-1.7,1.4-4.1,1.2-5.6-0.5
	c-2.8-3.1-7.5-3.4-10.6-0.7l-4.1,3.5C6,33.5,4.4,29.9,4,25.9l0.5-0.5c1.7-1.6,4.3-1.5,5.9,0.1c2.8,2.8,7.2,3.1,10.4,0.7l2.5-1.9
	c1.8-1.4,4.3-1.3,6,0.2l4.8,4.2l2.3-2.7l-4.8-4.2c-3-2.6-7.4-2.7-10.5-0.3l-2.5,1.9c-1.7,1.3-4.1,1.2-5.6-0.4c-2.4-2.4-6-3-8.9-1.6
	C5.3,12.2,13.3,5,22.9,5z"/>
<path class="st0" d="M105.4,15.3v20.9h-4V15.3H105.4z"/>
<path class="st0" d="M103.3,5c1.5,0,2.7,1.2,2.7,2.7c0,1.5-1.2,2.7-2.7,2.7c-1.5,0-2.7-1.2-2.7-2.7C100.7,6.2,101.9,5,103.3,5z"/>
</svg>
